!!!COM: Mozart, Wolfgang Amadeus
!!!OPR: Quartet in F Major
!!!OTL:
!!!OMV: 1
!!!SCT: K 168
!!!SCA: Chronologisch-thematisches Verzeichnis sämtlicher Tonwerke Wolfgang Amade Mozarts (L. von Köchel; 1862, 2/1905, 3/1937, 1947)
!!!YOR: Breitkopf & Härtel Edition
!!!EED: Frances Bennion
!!!ENC: Frances Bennion
!!!CDT: 1756/1/27/-1791/12/5/
!!!OCY: Österreich
!!!YEC: Copyright (c) 1994, 2000 Center for Computer Assisted Research in the Humanities
!!!YEM: Rights to all derivative editions reserved.
!!!YEM: Refer to licensing agreement for further details.
!!!YEN: United States of America
**kern	**kern	**kern	**kern
*k[b-]	*k[b-]	*k[b-]	*k[b-]
*F:	*F:	*F:	*F:
*clefG	*clefG	*clefF	*clefC
*M4/4	*M4/4	*M4/4	*M4/4
*tb32	*tb32	*tb32	*tb32
=1	=1	=1	=1
2.ff	4r	4r	1F
.	4cc	4a	.
.	4b-	4g	.
8ff	4a	4f	.
16ee	.	.	.
16dd	.	.	.
=2	=2	=2	=2
4cc	4b-	4e	4G
2cc	4g	4e	4B-
.	4a	4f	4A
4cc	4b-	4g	4E
=3	=3	=3	=3
4.ccc	2a	2f	[2F
8aa	.	.	.
4ff	4cc	4a	4F]
4r	4r	4r	4r
=4	=4	=4	=4
2f	2d	1A	2D
2f#	2e-	.	2C
=5	=5	=5	=5
4.g	[2d	4.B-	[2BB-
16b-	.	16G	.
16a	.	16A	.
4g	4d]	4B-	4BB-]
4r	4r	4r	4r
=6	=6	=6	=6
1r	2b-	1d	2G
.	2b	.	2F
=7	=7	=7	=7
16bb-	4cc	4g	2E
16aa	.	.	.
16gg	.	.	.
16ff	.	.	.
16ee	4g	4c	.
16dd	.	.	.
16cc	.	.	.
16b-	.	.	.
16a	4a	4c	4F
16g	.	.	.
16f	.	.	.
16e	.	.	.
16d	4r	4r	4r
16c	.	.	.
16B-	.	.	.
16A	.	.	.
=8	=8	=8	=8
4G	4.r	4.r	2r
2.r	.	.	.
.	8g	8B-	.
.	8b-	8d	4GG
.	8g	8B-	.
.	8f	8A	4C
.	8e	8G	.
=9	=9	=9	=9
2r	4.f	4.A	[2FF
.	16a	16c	.
.	16g	16B-	.
16f	4f	4A	4FF]
16a	.	.	.
16g	.	.	.
16b-	.	.	.
16a	4r	4r	4r
16cc	.	.	.
16b-	.	.	.
16dd	.	.	.
=10	=10	=10	=10
4cc	2.ff	4a	1FF
4a	.	4c	.
4g	.	4B-	.
4f	8ff	4A	.
.	16ee	.	.
.	16dd	.	.
=11	=11	=11	=11
4e	4cc	4G	4BB-
4e	2cc	4B-	4GG
4f	.	4A	4FF
4g	4cc	4B-	4EE
=12	=12	=12	=12
2f	4.ccc	2A	[2FF
.	8aa	.	.
4a	4ff	4c	4FF]
4r	4r	4r	4r
=13	=13	=13	=13
1r	4.cc	1r	4r
.	.	.	4F
.	8a	.	.
.	8f	.	4A
.	8f	.	.
.	8f	.	4F
.	8f	.	.
=14	=14	=14	=14
1r	1f	4.dd	4r
.	.	.	4BB-
.	.	8b-	.
.	.	8g	4D
.	.	8g	.
.	.	8g	4BB
.	.	8g	.
=15	=15	=15	=15
4.gg	4e	4g	1C
.	4g	4b-	.
8ee	.	.	.
8cc	4f	4a	.
8cc	.	.	.
8cc	4e	4g	.
8cc	.	.	.
=16	=16	=16	=16
4.ccc	4r	4r	1C
.	4a	4cc	.
8aa	.	.	.
8ff	4cc	4a	.
8ff	.	.	.
8ff	4a	4f	.
8ff	.	.	.
=17	=17	=17	=17
8.ff	8.f	2.B	1D
32gg	32g	.	.
32aa	32a	.	.
8gg	8g	.	.
8ff	8f	.	.
8ee	8e	.	.
8dd	8d	.	.
8cc	8c	4F	.
8b	8B	.	.
=18	=18	=18	=18
2b	2B	2F	2C
4cc	4c	4E	4CC
4r	4r	4r	4r
=19	=19	=19	=19
8.gg	8.g	1r	1r
16ff#	16f#	.	.
8.gg	8.g	.	.
16ff#	16f#	.	.
8.gg	8.g	.	.
16ff#	16f#	.	.
8.gg	8.g	.	.
16ff#	16f#	.	.
=20	=20	=20	=20
8.gg	8.g	4e	4C
16ff#	16f#	.	.
8.gg	8.g	4f	4BB
16ff#	16f#	.	.
8.gg	8.g	4r	4r
16ff#	16f#	.	.
8.gg	8.g	4d	4D
16ff#	16f#	.	.
=21	=21	=21	=21
8.gg	8.g	2c	2E
16ff#	16f#	.	.
8.gg	8.g	.	.
16ff#	16f#	.	.
8.gg	8.g	4B	4F
16ff#	16f#	.	.
8.gg	8.g	4d	4D
16ff#	16f#	.	.
=22	=22	=22	=22
8.gg	8.g	4e	4C
16ff#	16f#	.	.
8.gg	8.g	4f	4BB
16ff#	16f#	.	.
8.gg	8.g	4r	4r
16ff#	16f#	.	.
8.gg	8.g	4d	4D
16ff#	16f#	.	.
=23	=23	=23	=23
8.gg	8.g	2c	2E
16ff#	16f#	.	.
8.gg	8.g	.	.
16ff#	16f#	.	.
8.gg	8.g	4B	4F
16ff#	16f#	.	.
8.gg	8.g	4c	4E
16gg	16g	.	.
=24	=24	=24	=24
8.aa	8.a	4e	4c#
16gg#	16g#	.	.
8.aa	8.a	4f	4d
16aa	16a	.	.
8.gg	8.g	4d	4B
16ff#	16f#	.	.
8.gg	8.g	4e	4c
16gg	16g	.	.
=25	=25	=25	=25
8.ff	8.f	4c	4A
16ee	16e	.	.
8.ff	8.f	4d	4B
16ff	16f	.	.
8.ee	8.e	4B	4G#
16dd#	16d#	.	.
8.ee	8.e	4c	4A
16ee	16e	.	.
=26	=26	=26	=26
4.dd	4.d	2A	2F
16ee	16e	.	.
16ff	16f	.	.
4cc	4e	[2G	2G
4b	4d	.	.
=27	=27	=27	=27
8.cc	2e	2G]	1C
16b	.	.	.
8.cc	.	.	.
16cc	.	.	.
8.b-	[2g	[2e	.
16a	.	.	.
8.b-	.	.	.
16b-	.	.	.
=28	=28	=28	=28
8.a	4g]	4e]	4C#
16g#	.	.	.
8.a	2f	2d	4D
16a	.	.	.
8.g	.	.	4BB
16f#	.	.	.
8.g	[4e	[4c	4C
16g	.	.	.
=29	=29	=29	=29
8.f	4e]	4c]	4AA
16e	.	.	.
8.f	2d	2B	4BB
16f	.	.	.
8.e	.	.	4GG#
16d	.	.	.
8.e	[4c	[4A	4AA
16e	.	.	.
=30	=30	=30	=30
4.d	4c]	4A]	2FF
.	4A	4F	.
16f	.	.	.
16a	.	.	.
4c	2G	4E	2GG
4B	.	8F	.
.	.	8D	.
=31	=31	=31	=31
4c	4G	4E	4C
8r	8r	4e	4C
8ee	8e	.	.
8ff	8f	4r	4r
8gg	8g	.	.
8r	8r	4e	4c
8aa	8a	.	.
=32	=32	=32	=32
8ff#	8f#	4r	4r
8gg	8g	.	.
8r	8r	4d	4B
8dd	8d	.	.
8ee	8e	4r	4r
8ff	8f	.	.
8r	8r	4B	4G
8gg	8g	.	.
=33	=33	=33	=33
8dd#	8d#	4r	4r
8ee	8e	.	.
8r	8r	4c	4A
8ccc	8cc	.	.
8gg#	8g#	4r	4r
8aa	8a	.	.
8r	8r	4c	4F
8ccc	8cc	.	.
=34	=34	=34	=34
8ff#	8f#	4.r	4r
8gg	8g	.	.
8r	8r	.	4G
8ee	8e	8c	.
8gg	8g	8e	4r
4ff	4f	4d	.
.	.	.	4GG
8dd	8d	8B	.
=35	=35	=35	=35
8cc	8c	4c	4C
8dd	8B	.	.
8ee	8c	4G	4r
8ff	8d	.	.
8gg	8e	4r	4C#
8ff	8d	.	.
8gg	8e	4A	4r
8aa	8c#	.	.
=36	=36	=36	=36
8ff	8d	4r	4D
8cc#	8g	.	.
8dd	8f	4A	4r
8ee	8c#	.	.
8ff	8d	4r	4GG
8aa	8c	.	.
8gg	8B	4d	4r
8ff	8d	.	.
=37	=37	=37	=37
8ee	8c	4r	4C
8b	8f	.	.
8cc	8e	4G	4r
8dd	8B	.	.
8ee	8c	4r	4c
8gg	8e	.	.
8ff	8a	4c	4r
8ee	8g	.	.
=38	=38	=38	=38
8dd	8f	4r	4F
8ff	8a	.	.
8ee	8g	4A	4F
8dd	8f	.	.
8cc	8e	2G	4G
8dd	8f	.	.
8cc	8e	.	4GG
8b	8d	.	.
=39	=39	=39	=39
12cc	12e	4c	4C
12dd	12B	.	.
12ee	12c	.	.
12ff	12d	4F	4r
12gg	12e	.	.
12aa	12f	.	.
12gg	12e	4G	4G
12aa	12f	.	.
12gg	12e	.	.
12ff	12d	4f	4GG
12ee	12c	.	.
12dd	12B	.	.
=40	=40	=40	=40
12cc	12c	12e	4C
12dd	12B	12d	.
12ee	12c	12c	.
12ff	12d	12f	4r
12gg	12e	12g	.
12aa	12f	12a	.
12gg	12e	4g	4G
12aa	12f	.	.
12gg	12e	.	.
12ff	12d	4G	4GG
12ee	12c	.	.
12dd	12B	.	.
=41	=41	=41	=41
2dd	2B	2F	4C
.	.	.	4GG
8cc	8c	8E	4CC
4.r	4.r	4.r	.
.	.	.	4r
=42	=42	=42	=42
1r	1r	4.g	4r
.	.	.	4C
.	.	8e	.
.	.	8c	4E
.	.	8c	.
.	.	8c	4A
.	.	8c	.
=43	=43	=43	=43
1r	4.a	1c	4r
.	.	.	4F
.	8f	.	.
.	8d	.	4A
.	8d	.	.
.	8d	.	4F#
.	8d	.	.
=44	=44	=44	=44
4.dd	2d	2B	4r
.	.	.	4G
8b	.	.	.
8g	4e	4c	4E
8g	.	.	.
8g	4f	4d	4BB
8g	.	.	.
=45	=45	=45	=45
4.gg	2e	2c	4C
.	.	.	4c
8ee	.	.	.
8cc	8r	2r	4B-
8cc	8e	.	.
8cc#	8a	.	4A
8cc#	8g	.	.
=46	=46	=46	=46
4dd	4f	4.a	4D
2.r	2.r	.	4D
.	.	8f	.
.	.	8d	4F
.	.	8d	.
.	.	8d	4B-
.	.	8d	.
=47	=47	=47	=47
1r	4.b-	1d	4r
.	.	.	4G
.	8g	.	.
.	8e	.	4B-
.	8e	.	.
.	8e	.	4G#
.	8e	.	.
=48	=48	=48	=48
4.ee	2e	2c#	4r
.	.	.	4A
8cc#	.	.	.
8a	4f	4d	4F
8a	.	.	.
8a	4g	4e	4C#
8a	.	.	.
=49	=49	=49	=49
4.aa	2f	2.d	4r
.	.	.	4D
8ff	.	.	.
8dd	4a	.	4F
8dd	.	.	.
8dd	[4dd	4f	4D
8dd	.	.	.
=50	=50	=50	=50
[2ee-	8dd]	4b-	4G
.	8dd	.	.
.	8cc	4g	4GG
.	8b	.	.
8ee-]	8cc	[2f	4AA
8gg	8ee-	.	.
8ff	8dd	.	4A
8ee-	8cc	.	.
=51	=51	=51	=51
[2dd	8r	2f]	4B-
.	8cc	.	.
.	8b-	.	4BB-
.	8a	.	.
8dd]	8b-	8r	8r
8ff	8dd	8d	8A
8ee	8b-	8c#	8G
8dd	8a	8d	8F
=52	=52	=52	=52
4cc#	8g	4A	4E
.	8a	.	.
4dd	8f	2A	4D
.	8a	.	.
4gg	8e	.	4C#
.	8a	.	.
4ff	8d	[4A	4D
.	8dd	.	.
=53	=53	=53	=53
8.ff	8.dd	4A]	4AA
32ee	32cc#	.	.
32ff	32dd	.	.
4ee	4cc#	8A	4A
.	.	8a	.
2r	2r	8b-	4.r
.	.	8a	.
.	.	8g	.
.	.	8f	8A
=54	=54	=54	=54
2..r	4.r	8g	8B-
.	.	8f	8A
.	.	8e	8G
.	8a	8d	8F
.	8b-	8c#	8G
.	8a	8d	8F
.	8g	8c#	8E
8aa	8f	8d	8D
=55	=55	=55	=55
8bb-	8g	8e	8C#
8aa	8f	8f	8D
8gg	8e	8g	8E
8ff	8d	8a	8F
8gg	8c#	8e	8B-
8ff	8d	8f	8A
8ee	8e	8g	8G
8dd	8f	8a	8F
=56	=56	=56	=56
4cc#	4b-	4g	4E
8dd	8a	8f	8F
16r	16r	16r	16r
16gg	16ee	16b-	16G
4ff	4dd	4a	4A
8.ee	8.cc#	4a 4g	4AA
32dd	32b	.	.
32ee	32cc#	.	.
=57	=57	=57	=57
4dd	4dd	4a 4f	4D
8r	2r	2.r	2.r
8aa	.	.	.
8bb-	.	.	.
8aa	.	.	.
8gg	8r	.	.
8ff	8a	.	.
=58	=58	=58	=58
8gg	8b-	4.r	2..r
8ff	8a	.	.
8ee	8g	.	.
8dd	8f	8a	.
8ee	8g	8b-	.
8dd	8f	8a	.
8cc#	8e	8g	.
8dd	8d	8f	8A
=59	=59	=59	=59
8g	4.c#	4.e	8B-
8a	.	.	8A
8b-	.	.	8G
8a	8d	8f	8F
8cc#	8b-	8e	8G
8dd	8a	8f	8F
8ee	8g	8g	8E
8ff	8f	8a	8D
=60	=60	=60	=60
4gg	4e	4.a	4C#
8ff	8d	.	8D
16r	16r	16r	16r
16bb-	16dd	16g	16G
4dd	4a	4f	4A
8.cc#	4g	4e	4AA
32b	.	.	.
32cc#	.	.	.
=61	=61	=61	=61
4.dd	4f	4.d	4D
.	2.r	.	2.r
8ff	.	8f	.
4.b-	.	4.B-	.
8dd	.	8d	.
=62	=62	=62	=62
4.g	1r	4.G	1r
8bb-	.	8b-	.
4.ee	.	4.e	.
8gg	.	8g	.
=63	=63	=63	=63
2.ff	4r	4f	1F
.	4cc	4a	.
.	4b-	4g	.
8ff	4a	4f	.
16ee	.	.	.
16dd	.	.	.
=64	=64	=64	=64
4cc	4b-	4e	4G
2cc	4g	4e	4B-
.	4a	4f	4A
4cc	4b-	4g	4E
=65	=65	=65	=65
4.ccc	2a	2f	[2F
8aa	.	.	.
4ff	4cc	4a	4F]
4r	4r	4r	4r
=66	=66	=66	=66
2f	2d	1A	2D
2f#	2e-	.	2C
=67	=67	=67	=67
4.g	[2d	4.B-	[2BB-
16b-	.	16G	.
16a	.	16A	.
4g	4d]	4B-	4BB-]
4r	4r	4r	4r
=68	=68	=68	=68
1r	2b-	1d	2G
.	2b	.	2F
=69	=69	=69	=69
16bb-	4cc	4g	2E
16aa	.	.	.
16gg	.	.	.
16ff	.	.	.
16ee	4g	4c	.
16dd	.	.	.
16cc	.	.	.
16b-	.	.	.
16a	4f	4c	4F
16g	.	.	.
16f	.	.	.
16e	.	.	.
16d	4r	4r	4r
16c	.	.	.
16B-	.	.	.
16A	.	.	.
=70	=70	=70	=70
4G	4.r	4.r	2r
2.r	.	.	.
.	8g	8B-	.
.	8b-	8d	4GG
.	8g	8B-	.
.	8f	8A	4C
.	8e	8G	.
=71	=71	=71	=71
2r	4.f	4.A	2FF
.	16a	16c	.
.	16g	16B-	.
16f	4f	4A	4FF
16a	.	.	.
16g	.	.	.
16b-	.	.	.
16a	4r	4r	4r
16cc	.	.	.
16b-	.	.	.
16dd	.	.	.
=72	=72	=72	=72
4cc	2.ff	4a	1FF
4a	.	4c	.
4g	.	4B-	.
4f	8ff	4A	.
.	16ee	.	.
.	16dd	.	.
=73	=73	=73	=73
4e	4cc	4G	4BB-
4e	2cc	4B-	4GG
4f	.	4A	4FF
4g	4cc	4B-	4EE
=74	=74	=74	=74
2f	4.ccc	2A	[2EE-
.	8aa	.	.
4a	4ff	4c	4EE-]
4r	4r	4r	4r
=75	=75	=75	=75
1r	4.f	1r	4r
.	.	.	4BB-
.	8d	.	.
.	8B-	.	4D
.	8B-	.	.
.	8B-	.	4BB-
.	8B-	.	.
=76	=76	=76	=76
1r	1B-	4.g	4r
.	.	.	4E-
.	.	8e-	.
.	.	8c	4G
.	.	8c	.
.	.	8c	4E
.	.	8c	.
=77	=77	=77	=77
4.cc	4A	4c	4F
.	2.r	4c	4A
8a	.	.	.
8f	.	4d	4B-
8f	.	.	.
8f	.	4e-	4c
8f	.	.	.
=78	=78	=78	=78
4a-	4.ff	4e-	4c
4g	.	2d	4B
.	8dd	.	.
2r	8b	.	4G
.	8b	.	.
.	8b	4g	4F
.	8b	.	.
=79	=79	=79	=79
4.gg	4cc	4c	4E-
.	2g	2.r	4C
8ee-	.	.	.
8cc	.	.	4E-
8cc	.	.	.
8cc	4e-	.	4A-
8cc	.	.	.
=80	=80	=80	=80
2cc	4d	4.a	4F#
.	4.dd	.	4F#
.	.	8d	.
2b	.	8g	4G
.	16ee	8g	.
.	16ff	.	.
.	8ee	8g	4F
.	8dd	8g	.
=81	=81	=81	=81
2b-	8dd	4.g	4E
.	8cc	.	.
.	4.cc	.	4E
.	.	8c	.
[2a	.	8f	4F
.	8ff	8f	.
.	8aa	8f	4E
.	8cc	8f	.
=82	=82	=82	=82
4a]	8cc	4.f	4D
.	8b-	.	.
4aa	4.b-	.	4D
.	.	8B-	.
8gg	.	8c	4E
8dd	8b-	8c	.
8cc	8a	8c	4E
8b-	8g	8c	.
=83	=83	=83	=83
8b-	8g	4c	4F
8a	8f	.	.
2a	2f	16c	4F
.	.	16B	.
.	.	16c	.
.	.	16d	.
.	.	4c	4F
4cc	4g	4e	4E
=84	=84	=84	=84
8.ff	8.f	2.B	1D
32gg	32g	.	.
32aa	32a	.	.
8gg	8g	.	.
8ff	8f	.	.
8ee	8e	.	.
8dd	8d	.	.
8cc	8c	4F	.
8b	8B	.	.
=85	=85	=85	=85
2b	2B	2F	2C
4cc	4c	4E	4CC
4r	4r	4r	4r
=86	=86	=86	=86
8.cc	8.c	1r	1r
16b	16B	.	.
8.cc	8.c	.	.
16b	16B	.	.
8.cc	8.c	.	.
16b	16B	.	.
8.cc	8.c	.	.
16b	16B	.	.
=87	=87	=87	=87
8.cc	8.c	4A	4FF
16b	16B	.	.
8.cc	8.c	4B-	4EE
16b	16B	.	.
8.cc	8.c	4r	4r
16b	16B	.	.
8.cc	8.c	4G	4GG
16b	16B	.	.
=88	=88	=88	=88
8.cc	8.c	2F	2AA
16b	16B	.	.
8.cc	8.c	.	.
16b	16B	.	.
8.cc	8.c	4E	4BB-
16b	16B	.	.
8.cc	8.c	4G	4GG
16b	16B	.	.
=89	=89	=89	=89
8.cc	8.c	4A	4FF
16b	16B	.	.
8.cc	8.c	4B-	4EE
16b	16B	.	.
8.cc	8.c	4r	4r
16b	16B	.	.
8.cc	8.c	4G	4GG
16b	16B	.	.
=90	=90	=90	=90
8.cc	8.c	2F	2AA
16b	16B	.	.
8.cc	8.c	.	.
16b	16B	.	.
8.cc	8.c	4E	4BB-
16b	16B	.	.
8.cc	8.c	4F	4AA
16cc	16c	.	.
=91	=91	=91	=91
8.dd	8.d	4A	4F#
16cc#	16c#	.	.
8.dd	8.d	4B-	4G
16dd	16d	.	.
8.cc	8.c	4G	4E
16b	16B	.	.
8.cc	8.c	4A	4F
16cc	16c	.	.
=92	=92	=92	=92
8.b-	8.B-	4F	4D
16a	16A	.	.
8.b-	8.B-	4G	4E
16b-	16B-	.	.
8.a	8.A	4E	4C#
16g#	16G#	.	.
8.a	8.A	4F	4D
16a	16A	.	.
=93	=93	=93	=93
4.g	4.G	2D	2BB-
16a	16A	.	.
16b-	16B-	.	.
4f	4A	[2C	2C
4e	4G	.	.
=94	=94	=94	=94
8.f	2A	2C]	1FF
16e	.	.	.
8.f	.	.	.
16f	.	.	.
8.e-	[2c	[2A	.
16d	.	.	.
8.e-	.	.	.
16e-	.	.	.
=95	=95	=95	=95
8.d	4c]	4A]	4FF#
16c#	.	.	.
8.d	2B-	2G	4GG
16d	.	.	.
8.c	.	.	4EE
16B	.	.	.
8.c	[4A	[4F	4FF
16c	.	.	.
=96	=96	=96	=96
8.B-	4A]	4F]	4DD
16A	.	.	.
8.B-	4G	4E	4EE
16B-	.	.	.
8.A	4e	4G	4CC#
16G#	.	.	.
8.A	4d	4F	4DD
16A	.	.	.
=97	=97	=97	=97
4.G	2d	2B-	4r
.	.	.	4BB-
16d	.	.	.
16g	.	.	.
4f	4c	4A	4C
4e	4B-	4G	4CC
=98	=98	=98	=98
4a	4A	4F	4FF
8r	8r	4A	4F
8a	8A	.	.
8b-	8B-	4r	4r
8cc	8c	.	.
8r	8r	4A	4F
8dd	8d	.	.
=99	=99	=99	=99
8b	8B	4r	4r
8cc	8c	.	.
8r	8r	4G	4E
8g	8G	.	.
8a	8A	4r	4r
8b-	8B-	.	.
8r	8r	4E	4C
8cc	8c	.	.
=100	=100	=100	=100
8g#	8G#	4r	4r
8a	8A	.	.
8r	8r	4F	4D
8ff	8f	.	.
8cc#	8c#	4r	4r
8dd	8d	.	.
8r	8r	4d	4BB-
8ff	8f	.	.
=101	=101	=101	=101
8b	8B	4.r	4r
8cc	8c	.	.
8r	8r	.	4C
8a	8A	8F	.
8cc	8c	8A	4r
4b-	4B-	4G	.
.	.	.	4CC
8g	8G	8E	.
=102	=102	=102	=102
8f	8A	4F	4FF
8ff	8c	.	.
8aa	8f	4c	4r
8bb-	8g	.	.
8ccc	8a	4r	4FF#
8bb-	8g	.	.
8ccc	8a	4d	4r
8ddd	8f#	.	.
=103	=103	=103	=103
8bb-	8g	4r	4GG
8ff#	8cc	.	.
8gg	8b-	4d	4r
8aa	8f#	.	.
8bb-	8g	4r	4C
8ddd	8f	.	.
8ccc	8e	4G	4r
8bb-	8g	.	.
=104	=104	=104	=104
8aa	8f	4r	4FF
8ee	8b-	.	.
8ff	8a	4c	4r
8gg	8e	.	.
8aa	8f	4r	4F
8ccc	8a	.	.
8bb-	8dd	4d	4r
8aa	8cc	.	.
=105	=105	=105	=105
8gg	8b-	4r	4B-
8bb-	8dd	.	.
8aa	8cc	4d	4B-
8gg	8b-	.	.
8ff	8a	2c	4c
8gg	8b-	.	.
8ff	8a	.	4C
8ee	8g	.	.
=106	=106	=106	=106
12ff	12a	4f	4F
12gg	12e	.	.
12aa	12f	.	.
12bb-	12g	4B-	4r
12ccc	12a	.	.
12ddd	12b-	.	.
12ccc	12a	4c	4c
12ddd	12b-	.	.
12ccc	12a	.	.
12bb-	12g	4c	4C
12aa	12f	.	.
12gg	12e	.	.
=107	=107	=107	=107
12ff	12f	12A	4F
12gg	12e	12G	.
12aa	12f	12F	.
12bb-	12g	12d	4r
12ccc	12a	12c	.
12ddd	12b-	12B-	.
12ccc	12a	4c	4c
12bb-	12b-	.	.
12aa	12cc	.	.
12gg	12b-	4c	4C
12ff	12a	.	.
12ee	12g	.	.
=108	=108	=108	=108
2ee	2g	2B-	[2FF
8ff	8f	8A	8FF]
4.r	4.r	4.r	4.r
==	==	==	==
*-	*-	*-	*-
!!!RWG1: This file contains only pitch and duration data.
!!!RWG2: Transposing instruments are not transposed.
!!!RWG3: Spines may have incompatible meters.
!!!RWG4: Durations of rests and tied notes may be interpreted.
!!!RWG: Key is interpreted using the Humdrum key tool.
!!!AFT: stage1
!!!END: 1997/04/15
!!format changes:
!!content changes:
!!public access: complete
!!!KEY: 520763159
!!!EMD: Converted from MuseData to Humdrum Dec 16, 2000, by Andreas Kornstaedt using muse2kern.
